X:1
T: Friends Forever
C:
R:Strathspey
Q: 128
K:A
M:4/4
L:1/16
|:A2B2|ce3 d2c2 A4 G2A2|B4 BF3 A4 ((3G2A2B2) |ce3 f2g2 a4 e4|f3e dc3 B4 c2B2|
A4 G2A2 F4 E4|A4 Ac3 B4 A3B|ce3 f2g2 a4 e4|c4 c3B A4 A2E2|
FA3 A3F EG3 G3E|dc3 B2A2 c4 B4|FA3 A3f eA3 A4|d3c B2A2 B4 A2G2|
F3E Fd3 E4 E2C2|DF3 B3A A4 G3F|E3A A2c2 D3B B2d2|c4 c3B A4:|
